X:370
T: SONNENGLANZ MONDENSCHEIN
N: B0441
O: Europa, Mitteleuropa, Deutschland, Rheinland
R: Liebes - Lied, Liebes - Lust
M: 3/4
L: 1/8
K: G
 | D2G2B2 | e3dd2 |
B2G2B2 | d3cc2 |
D2F2A2 | f3ed2 |
c2e2d2 | B6

@@@ Tune index: 2173
